!!!COM: Scarlatti, Domenico
!!!CDT: 1685-1757
!!!OTL: Sonata in D major, L.56, K.281
!!!SCT: K. 281
!!!SCT: L. 056
!!!OMD: Andante ([quarter]=126)
**kern	**kern	**dynam
*staff2	*staff1	*staff1/2
*Icemba	*Icemba	*
*I"L.56 (K.281)	*I"L.56 (K.281)	*
*>[A,A1,A,A2,B,B]	*>[A,A1,A,A2,B,B]	*>[A,A1,A,A2,B,B]
*>norep[A,A2,B]	*>norep[A,A2,B]	*>norep[A,A2,B]
*>A	*>A	*>A
*clefF4	*clefG2	*
*k[f#c#]	*k[f#c#]	*
*M3/4	*M3/4	*
*MM126	*MM126	*
=1-	=1-	=1-
*ped	*	*
[2.DD [2.D	4dd	mf
.	(8aaL	.
.	8ff#	.
.	8dd	.
.	8aJ	.
=2	=2	=2
*Xped	*	*
2.DD] 2.D]	8bL	.
.	8gg	.
.	8cc#	.
.	8ee	.
.	8a	.
.	8ee 8ggJ	.
=3	=3	=3
*ped	*	*
[2.DD [2.D	4dd 4ff#)	.
.	(8ff#L	.
.	8dd	.
.	8a	.
.	8f#J	.
=4	=4	=4
*Xped	*	*
2.DD] 2.D]	8gL	.
.	8ee	.
.	8cc#	.
.	8g	.
.	8e	.
.	8g 8cc#J	.
!!LO:LB:g=z
=5	=5	=5
*ped	*	*
[2.DD [2.D	4f# 4dd)	.
.	(8aaL	p
.	8ff#	.
.	8dd	.
.	8aJ	.
=6	=6	=6
*Xped	*	*
2.DD] 2.D]	8bL	.
.	8gg	.
.	8cc#	.
.	8ee	.
.	8a	.
.	8ee 8ggJ	.
=7	=7	=7
*ped	*	*
[2.DD [2.D	4dd 4ff#)	.
.	(8ff#L	.
.	8dd	.
.	8a	.
.	8f#J	.
=8	=8	=8
*Xped	*	*
2.DD] 2.D]	8gL	.
.	8ee	.
.	8cc#	.
.	8g	.
.	8e	.
.	8g 8cc#J	.
=9	=9	=9
*ped	*	*
4DD 4D	4f# 4dd)	.
*Xped	*	*
!	!	!LO:DY:rj
(8f#L	(4.aa	mf
8d	.	.
8g	.	.
8eJ	8dd)	.
!!LO:LB:g=z
=10	=10	=10
.	(8eeq	.
4a)	(8ddL)	.
.	8cc#J)	.
(8BL	(4.gg	.
8G	.	.
8c#	.	.
8AJ	8ee)	.
=11	=11	=11
4d)	(8eeL	.
.	8ff#J)	.
(8f#L	(4.aa	p
8d	.	.
8g	.	.
8eJ	8dd)	.
=12	=12	=12
.	(8eeq	.
4a)	(8ddL)	.
.	8cc#J)	.
(8BL	(4.gg	.
8G	.	.
8c#	.	.
8AJ	8ee)	.
=13	=13	=13
4d)	(8eeL	.
.	8ff#J)	.
*ped	*	*
(4d'	(8f#L	<
.	8d	.
4d'	8g#	.
.	8eJ	.
=14	=14	=14
*Xped	*	*
4c#'	8aL	.
.	8f#	.
4c#'	8b	.
.	8g#	.
4c#'	8cc#	.
.	8aJ	.
!!LO:LB:g=z
=15	=15	=15
!	!	!LO:DY:rj
4B')	4dd)	mf
*ped	*	*
!	!	!LO:DY:rj
(4e'	(8g#L	p
.	8e	<
4e'	8a	.
.	8f#J	.
=16	=16	=16
*Xped	*	*
4d'	8bL	.
.	8g#	.
4d'	8cc#	.
.	8a	.
4d'	8dd	.
.	8bJ	.
=17	=17	=17
4c#')	4ee)	mf
*ped	*	*
(4f#'	(8aL	p
.	8f#	<
4f#'	8b	.
.	8g#J	.
=18	=18	=18
*Xped	*	*
4e'	8cc#L	.
.	8a	.
4e'	8dd	.
.	8b	.
4e'	8ee	.
.	8cc#J	.
=19	=19	=19
4d')	8ff#L	mf
.	8dd	.
(4d	8gg#	.
.	8ee	.
4c#	8aa)	.
.	(8aJ	.
!!LO:LB:g=z
=20	=20	=20
4B	8ddL	.
.	16eeL	.
.	16ff#JJ	.
4G#	8eeL	.
.	8dd	.
4E	8cc#	.
.	8bJ	.
=21	=21	=21
4AA)	8.cc#L	.
.	16ddJk	.
(8aL	4ee)	.
8e	.	.
8f#	[4a	.
8c#J	.	.
=22	=22	=22
8dL	4a]	.
8A	.	.
8B	(4.ddT	.
8F#	.	.
8G#	.	.
8EJ	16cc#LL	.
.	16bJJ	.
=23	=23	=23
4A)	8.cc#L	>
.	16ddJk	.
(8aL	4ee)	] p
8e	.	.
8f#	[4a	.
8c#J	.	.
=24	=24	=24
8dL	4a]	.
8A	.	.
8B	(4.ddT	.
8F#	.	.
8G#	.	.
8EJ	16cc#LL	.
.	16bJJ	.
!!LO:LB:g=z
=25	=25	=25
4A)	4cc#	.
(8eL	8eeL)	.
8B	(8g#	.
8c#	8a	.
8G#J	8bJ	.
=26	=26	=26
8AL	4.cc#	.
8E	.	.
8F#	.	.
8C#	16ddLL	.
.	16eeJJ	.
8D	8ddL	.
8AAJ	8cc#J	.
=27	=27	=27
4E)	4b	.
!	!	!LO:DY:rj
(8eL	8eeL)	mf
8B	(8g#	.
8c#	8a	.
8G#J	8bJ	.
=28	=28	=28
8AL	4.cc#	.
8E	.	.
8F#	.	.
8C#	16ddLL	.
.	16eeJJ	.
8D	8ddL	.
8AAJ	8cc#J	.
=29	=29	=29
4E)	4b)	.
*ped	*	*
!	!	!LO:DY:rj
(4e'	(8g#L	p
.	8e	<
4e'	8a	.
.	8f#J	.
!!LO:LB:g=z
=30	=30	=30
*Xped	*	*
4d'	8bL	.
.	8g#	.
4d'	8cc#	.
.	8a	.
4d'	8dd	.
.	8bJ	.
=31	=31	=31
4c#')	4ee)	mf
*ped	*	*
(4f#'	(8aL	p
.	8f#	<
4f#'	8b	.
.	8g#J	.
=32	=32	=32
*Xped	*	*
4e'	8cc#L	.
.	8a	.
4e'	8dd	.
.	8b	.
4e'	8ee	.
.	8cc#J	.
=33	=33	=33
4d')	8ff#L	mf
.	8dd	.
(4d	8gg#	.
.	8ee	.
4c#	8aa)	.
.	(8aJ	.
=34	=34	=34
4d	8bL	.
.	16cc#L	.
.	16ddJJ	.
4e	8cc#L<	.
.	8b	.
4E	8a	.
.	8g#J	.
!!LO:LB:g=z
=35	=35	=35
4A)	4a)	.
(8c#L	(4.ee	.
8A	.	.
8d	.	.
8BJ	8ff#	.
=36	=36	=36
4e)	8aL	.
.	8g#J)	.
(8F#L	4.dd	.
8D	.	.
8G#	.	.
8EJ	8dd	.
=37	=37	=37
.	(8eeq	.
4A)	(8ddL)	.
.	8cc#J)	.
(8c#L	(4.ee	p
8A	.	.
8d	.	.
8BJ	8ff#	.
=38	=38	=38
4e)	8aL	.
.	8g#J	.
(8F#L	4.dd)	.
8D	.	.
8G#	.	.
8EJ	(8dd	.
=39	=39	=39
4A 4c#)	8cc#')	.
.	(4gg#	mf
4B (4d	.	.
.	4aa	.
4c# 4e	.	.
.	[8b	.
!!LO:LB:g=z
=40	=40	=40
4d	8bL]	.
.	16cc#L	.
.	16ddJJ	.
4e	8cc#L	.
.	8b	.
4E	8a	.
.	8bJ	.
=41	=41	=41
4A 4c#)	8cc#')	.
.	(4gg#	p
4B (4d	.	.
.	4aa	.
4c# 4e	.	.
.	[8b	.
=42	=42	=42
4d	8bL]	.
.	16cc#L	.
.	16ddJJ	.
4e	8cc#L	.
.	8b	.
4E	8a	.
.	8bJ	.
=43	=43	=43
*>A1	*>A1	*>A1
8AL)	4a)	.
(8B	.	.
8A	4r	.
8Gn	.	.
8F#	4r	.
8EJ)	.	.
=44:|!	=44:|!	=44:|!
*>A2	*>A2	*>A2
2.A)	2.a)	.
!!LO:LB:g=z
=45!|:	=45!|:	=45!|:
*>B	*>B	*>B
4AA	4a	mf
*clefG2	*	*
*ped	*	*
(4a'	(8cc#L	p
.	8a	<
4a'	8dd	.
.	8bJ	.
=46	=46	=46
*Xped	*	*
4g'	8eeL	.
.	8cc#	.
4g'	8ff#	.
.	8dd	.
4g'	8gg	.
.	8eeJ	.
=47	=47	=47
4f#')	4aa)	mf
*ped	*	*
(4b'	(8dd#L	p
.	8b	<
4b'	8ee	.
.	8cc#J	.
=48	=48	=48
*Xped	*	*
4a'	8ff#L	.
.	8dd#	.
4a'	8gg	.
.	8ee	.
4a'	8aa	.
.	8ff#J	.
=49	=49	=49
4g')	8bbL	mf >
.	8gg	.
(>4g	8ee)	.
.	(8b	.
4a	8ccn	] mf
.	8cccnJ	.
!!LO:LB:g=z
=50	=50	=50
*ped	*	*
4B 4b)	8bbL	>
.	8ff#	.
*Xped	*	*
4B 4b	8dd#)	.
.	(8b	.
(4cn 4a	8ee	] mf
.	8aaJ	.
=51	=51	=51
*ped	*	*
4B) 4b	8bbL	>
.	8ff#	.
*Xped	*	*
4B 4b	8dd#)	.
.	(8b	.
(4A 4a	8ccn	] mf
.	8cccnJ	.
=52	=52	=52
*ped	*	*
4B) 4b	8bbL	>
.	8ff#	.
*Xped	*	*
4B 4b	8dd#)	.
.	(8b	.
(<4cn 4a	8ee	.
.	8aaJ	.
*clefF4	*	*
=53	=53	=53
*	*^	*
4B) 4d	[2gg#	(8gg#L)	]
.	.	8ddn	p
4B 4d	.	8b	.
.	.	8eeJ	.
(<4B 4d	8gg#L]	[4ffn)	.
.	(8aaJ	.	.
!!LO:LB:g=z
=54	=54	=54	=54
4G#) 4d	[2.bb)	8ffnXL]	.
.	.	(8dd	p
4G# 4d	.	8ee	.
.	.	8ccn	.
(<4G# 4d	.	8dd	.
.	.	8bJ	.
=55	=55	=55	=55
4A) 4cn	8bbL]	[2.ccn)	.
!	!	!	!LO:DY:a:rj
.	(8bb	.	mf
4B (4d	8aa	.	.
.	8ff#X	.	.
4c 4e	8ggn	.	.
.	8eeJ	.	.
=56	=56	=56	=56
*^	*	*	*
2.d)	(4D	[2.ff#)	8ccnXL]	.
.	.	.	(8cc	p
.	4E	.	8dd	.
.	.	.	8b	.
.	4F#	.	8cc	.
.	.	.	8aJ	.
*v	*v	*	*	*
=57	=57	=57	=57
4G 4B	8ff#L]	4b)	.
.	(8dd	.	.
4A 4cn	8gg	4re	.
.	8ff#	.	.
4B 4d	8ee	4re	.
.	8ddJ	.	.
*	*v	*v	*
=58	=58	=58
4cn 4e	8eeL	.
.	8ccn	.
4f#	8dd	.
.	8b	.
4d	8cc	.
.	8aJ	.
!!LO:LB:g=z
=59	=59	=59
4G)	4b)	.
(8gL	(4dd	mf
8d	.	.
8e	[4g)	.
8BJ	.	.
=60	=60	=60
8cnL	4g]	.
8G	.	.
8A	(4.ccnT	.
8E	.	.
8F#	.	.
8DJ	16bLL<	.
.	16aJJ	.
=61	=61	=61
4G)	8.bL	>
.	16ccnJk	.
(8gL	4dd)	] p
8d	.	.
8e	[4g	.
8BJ	.	.
=62	=62	=62
8cnL	4g]	.
8G	.	.
8A	(4.ccnT	.
8E	.	.
8F#	.	.
8DJ	16bLL<	.
.	16aJJ	.
=63	=63	=63
4G)	4b	.
(8dL	8ddL)	p
8A	(8f#	.
8B	8g	.
8F#J	8aJ	.
!!LO:LB:g=z
=64	=64	=64
8GL	4.b	.
8D	.	.
8E	.	.
8BB	16ccnLL	.
.	16ddJJ	.
8Cn	8ccL	.
8GGJ	8bJ	.
=65	=65	=65
4D/)	4a	.
(8dL	8ddL)	pp
8A	(>8f#	.
8B	8g	.
8F#J	8aJ	.
=66	=66	=66
*	*^	*
8GL<	2ryy	4.b	.
8D	.	.	.
8E	.	.	.
8BB	.	16cc#XLL	.
.	.	16ddJJ	.
!	!	!	!LO:DY:rj
8C#X	[4ee^)	(8aL	p
8AAJ	.	8gJ	.
=67	=67	=67	=67
(4D)	8eeL]	4f#)	<
.	(<8ee	.	.
4E	8dd	4ryy	.
.	8cc#J	.	.
4F#	[4aa	8bL	.
.	.	8aJ	.
=68	=68	=68	=68
4G	8aaL]	4b)	.
.	(<8aa	.	.
4A	8gg	4ryy	.
.	8ff#J	.	.
4B	4bb	8eeL	.
.	.	8ddJ	.
*	*v	*v	*
!!LO:LB:g=z
=69	=69	=69
4A)	8cc#L	.
.	16bL	.
.	16aJJ)	.
(8f#L	(4.aa	f
8d	.	.
8g	.	.
8eJ	8dd)	.
=70	=70	=70
.	(8eeq	.
4a)	(8ddL)	.
.	8cc#J)	.
(8BL	4.gg	.
8G	.	.
8c#	.	.
8AJ	8gg	.
=71	=71	=71
.	(8aaq	.
4d)	(8ggL)	.
.	8ff#J)	.
(8F#L	(4.aa	p
8D	.	.
8G	.	.
8EJ	8dd)	.
=72	=72	=72
.	(8eeq	.
4A)	(8ddL)	.
.	8cc#J)	.
(8BBL	4.gg	.
8GG	.	.
8C#	.	.
8AAJ	(8gg	.
=73	=73	=73
4D 4F#)	8ff#)	.
.	(4ccc#	mf
4E (4G	.	.
.	4ddd	.
4F# 4A	.	.
.	[8ee	.
!!LO:LB:g=z
=74	=74	=74
4G	8eeL]	.
.	16ff#L	.
.	16ggJJ	.
4A	8ff#L	.
.	8ee	.
4AA	8dd	.
.	8cc#J	.
=75	=75	=75
4D)	4dd)	.
(8f#L	(4.aa	.
8d	.	.
8g	.	.
8eJ	8dd)	.
=76	=76	=76
.	(8eeq	.
4a)	(8ddL)	.
.	8cc#J)	.
(8BL	4.gg	.
8G	.	.
8c#	.	.
8AJ	8gg	.
=77	=77	=77
.	(8aaq	.
4d)	(8ggL)	.
.	8ff#J)	.
(8F#L	(4.aa	p
8D	.	.
8G	.	.
8EJ	8dd)	.
=78	=78	=78
.	(8eeq	.
4A)	(8ddL)	.
.	8cc#J)	.
(8BBL	4.g	.
8GG	.	.
8C#	.	.
8AAJ	(8g	.
!!LO:LB:g=z
=79	=79	=79
4D 4F#)	8f#')	.
.	(4cc#	mf
4E (4G	.	.
.	4dd	.
4F# 4A	.	.
.	[8e	.
=80	=80	=80
4G	8eL]	.
.	16f#L	.
.	16gJJ	.
4A	8f#L	.
.	8e	.
4AA	8d	.
.	8eJ	.
=81	=81	=81
4D 4F#)	8f#')	.
.	(4cc#	p
4E (4G	.	.
.	4dd	.
4F# 4A	.	.
.	[8e	.
=82	=82	=82
4G	8eL]	.
.	16f#L	.
.	16gJJ	.
!	!LO:TX:c:i:t=rall.	!
4A)	8f#L	.
.	8e	.
(4AA	8d	.
.	8c#J	.
=83	=83	=83
2.DD) 2.D	2.d)	.
==:|!	==:|!	==:|!
*-	*-	*-
!!!RDF**kern: > = above
!!!RDF**kern: < = below
!!!PTL: Domenico Scarlatti: Opere complete per clavicembalo
!!!PED: Longo, Alessandro
!!!PPR: Ricordi
!!!PPP: Milan
!!!PDT: 1906-1913
!!!ENC: Craig Stuart Sapp
!!!END: 2005/06/21
!!!EED: Craig Stuart Sapp
!!!EEV: 2020/06/13
